X:1
T:Title
%%score { ( 1 3 ) | 2 }
L:1/8
M:6/8
K:Ab
V:1 treble nm="Grand Piano"
V:3 treble 
V:2 bass 
V:1
 z3 z2[Q:1/4=90] [E,E] | c>B[CA] A>G[CF] | [CE]2 [CF] [CE]2 [CE] | B>=AB d2 G | %4
 [CA]2 [DB] [Ec]2 [Ec] | B>c[EB] B>c[=DB] | B3 E3 |[M:1/8] E |[M:3/4] d>B G F2 E | c>A F E2 E | %10
 d>B G F2 E |[M:5/8] c>AF E2 |[M:1/8] A |[M:3/4] A>B AA- A/B/A | A3 c2 A | B>c [Fd]d- d/B/G | %16
[M:5/8] B3 [A,CA]2 |[M:1/8] z |[M:3/4] d>B G F2 E | c>A F E2 E | d>B G F2 E | c>A F E2 A | %22
[M:1/8] A |[M:3/4] A>B AA- A/B/A | A3 c2 A | B>c [Fd]d- d/B/G |[M:13/8] B3 .[CA]3 z z z z z z2 |] %27
V:2
 z6 | [A,,E,]2 [A,,E,] [A,,E,]2 [A,,E,] | [A,,A,]2 [A,,A,] [A,,A,]2 [A,,A,] | %3
 [E,G,E]2 [E,G,E] [E,G,E]2 [E,G,D] | [A,,A,]2 [A,,A,] [A,,A,]2 [A,,A,] | %5
 [B,,G,]2 [B,,G,] [B,,A,]2 [B,,A,] | [E,G,D]3 [E,G,D]3 |[M:1/8] z | %8
[M:3/4] E,,2 [E,G,D] [E,G,D]2 [E,G,D] | A,,2 [E,A,C] [E,A,C]2 [E,A,C] | %10
 E,,2 [E,G,D] [E,G,D]2 [E,G,D] |[M:5/8] A,,2 [E,A,C] [E,A,C]2 |[M:1/8] [A,CE] | %13
[M:3/4] [_G,CE]2 [G,CE] [=E,_C=D]2 [E,CD] | [E,CE]3 [E,A,E]2 [E,CE] | %15
 [D,B,]>[C,=A,] [B,,B,] [E,B,]2 [E,B,D] |[M:5/8] [E,G,D]3 A,,2 |[M:1/8] E | %18
[M:3/4] E,,2 [E,G,D] [E,G,D]2 [E,G,D] | A,,2 [E,A,C] [E,A,C]2 [E,A,C] | %20
 E,,2 [E,G,D] [E,G,D]2 [E,G,D] | A,,2 [E,A,C] [E,A,C]2 [A,CE] |[M:1/8] [A,CE] | %23
[M:3/4] [_G,CE]2 [G,CE] [=E,_C=D]2 [E,CD] | [E,CE]3 [E,A,E]2 [E,CE] | %25
 [D,B,]>[C,=A,] [B,,B,] [E,B,]2 [E,B,D] |[M:13/8] [E,G,D]3 .[A,,A,]3 z z z z z z2 |] %27
V:3
 x6 | .C3 .C3 | x6 | x6 | x6 | .E3 .=D3 | x6 |[M:1/8] x |[M:3/4] x6 | x6 | x6 |[M:5/8] x5 | %12
[M:1/8] x |[M:3/4] x6 | x6 | F2 z .G3 |[M:5/8] x5 |[M:1/8] x |[M:3/4] x6 | x6 | x6 | x6 | %22
[M:1/8] x |[M:3/4] x6 | x6 | F2 z .G3 |[M:13/8] x13 |] %27

